Catalina-light/actions/16/transform-scale-vertical.svg

<svg xmlns="http://www.w3.org/2000/svg" width="24" height="24" viewBox="0 0 24 24">
 <defs>
  <style id="current-color-scheme" type="text/css">
   .ColorScheme-Text { color:#5c616c; } .ColorScheme-Highlight { color:#5294e2; }
  </style>
 </defs>
 <path style="fill:currentColor" class="ColorScheme-Text" d="M 3.5 0 A 0.50048 0.50038 0 0 0 3 0.5 L 3 7.5097656 L 3 16.490234 L 3 23.5 A 0.50048 0.50038 0 0 0 3.5 24 L 20.5 24 A 0.50048 0.50038 0 0 0 21 23.5 L 21 16.492188 L 21 7.5117188 L 21 0.5 A 0.50048 0.50038 0 0 0 20.5 0 L 3.5 0 z M 4 1 L 15.542969 1 L 13.080078 3.9550781 L 15.082031 3.9550781 L 15.082031 7.0097656 L 4 7.0097656 L 4 1 z M 15.621094 1 L 19.998047 1 L 19.998047 7.0097656 L 16.083984 7.0097656 L 16.083984 3.9550781 L 18.083984 3.9550781 L 15.621094 1 z M 16.083984 8.0097656 L 19.998047 8.0097656 L 19.998047 15.990234 L 16.083984 15.990234 L 16.083984 8.0097656 z M 4 8.0117188 L 15.082031 8.0117188 L 15.082031 15.990234 L 4 15.990234 L 4 8.0117188 z M 16.083984 16.990234 L 19.998047 16.990234 L 19.998047 22.998047 L 15.621094 22.998047 L 18.083984 20.042969 L 16.083984 20.042969 L 16.083984 16.990234 z M 4 16.992188 L 15.082031 16.992188 L 15.082031 20.044922 L 13.082031 20.044922 L 15.544922 23 L 4.0019531 23 L 4 23 L 4 16.992188 z"/>
 <path style="fill:currentColor;opacity:0.3" class="ColorScheme-Text" d="M 3.9921875 0.9921875 L 3.9921875 23.007812 L 20.007812 23.007812 L 20.007812 0.9921875 L 3.9921875 0.9921875 z"/>
</svg>

<svg width="24" height="24" viewBox="0 0 24 24" xmlns="http://www.w3.org/2000/svg">
<defs>
<style id="current-color-scheme" type="text/css">.ColorScheme-Text { color:#5c616c; } .ColorScheme-Highlight { color:#5294e2; }</style>
</defs>
<path class="ColorScheme-Text" d="m3.5 0a0.50048 0.50038 0 0 0-0.5 0.5v23a0.50048 0.50038 0 0 0 0.5 0.5h17a0.50048 0.50038 0 0 0 0.5-0.5v-23a0.50048 0.50038 0 0 0-0.5-0.5h-17zm0.5 1h11.543l-2.4629 2.9551h2.002v3.0547h-11.082v-6.0098zm11.621 0h4.377v6.0098h-3.9141v-3.0547h2l-2.4629-2.9551zm0.46289 7.0098h3.9141v7.9805h-3.9141v-7.9805zm-12.084 0.0019532h11.082v7.9785h-11.082v-7.9785zm12.084 8.9785h3.9141v6.0078h-4.377l2.4629-2.9551h-2v-3.0527zm-12.084 0.001954h11.082v3.0527h-2l2.4629 2.9551h-11.545v-6.0078z" fill="currentColor"/>
<path class="ColorScheme-Text" d="m3.9922 0.99219v22.016h16.016v-22.016h-16.016z" fill="currentColor" opacity=".3"/>
</svg>
